symbolic/16x16/apps/mintsources-maintenance.svg

<svg xmlns="http://www.w3.org/2000/svg" width="16" height="16" version="1">
 <path style="fill:#b2bfd9" d="M 7.5996094,0 C 6.7132094,0 6,0.71320937 6,1.5996094 v 0.75 a 6,6 0 0 0 -1.8925781,1.09375 l -0.6503907,-0.375 C 2.6893865,2.6251594 1.7146844,2.8866517 1.2714844,3.6542969 L 0.87109375,4.3457031 C 0.42789375,5.1133483 0.68938635,6.08805 1.4570312,6.53125 l 0.6484376,0.375 A 6,6 0 0 0 2,8 6,6 0 0 0 2.1054688,9.09375 l -0.6484376,0.375 c -0.76764485,0.4432 -1.02913745,1.417902 -0.58593745,2.185547 l 0.40039065,0.691406 c 0.4432,0.767645 1.4179021,1.029138 2.1855468,0.585938 L 4.1035156,12.558594 A 6,6 0 0 0 6,13.648438 v 0.751953 C 6,15.286791 6.7132094,16 7.5996094,16 H 8.4003906 C 9.2867906,16 10,15.286791 10,14.400391 v -0.75586 a 6,6 0 0 0 1.892578,-1.08789 l 0.650391,0.375 c 0.767644,0.4432 1.742347,0.181707 2.185547,-0.585938 l 0.40039,-0.691406 c 0.4432,-0.767645 0.181707,-1.742347 -0.585937,-2.185547 l -0.648438,-0.375 A 6,6 0 0 0 14,8 6,6 0 0 0 13.894531,6.90625 l 0.648438,-0.375 c 0.767644,-0.4432 1.029137,-1.4179017 0.585937,-2.1855469 L 14.728516,3.6542969 C 14.285316,2.8866517 13.310613,2.6251594 12.542969,3.0683594 L 11.896484,3.4414062 A 6,6 0 0 0 10,2.3515625 V 1.5996094 C 10,0.71320938 9.2867906,0 8.4003906,0 Z"/>
 <path style="fill:#546e7a" d="m 8,5 c 1.65675,0 3,1.343175 3,3 0,1.65675 -1.34325,3 -3,3 C 6.343175,11 5,9.65675 5,8 5,6.343175 6.343175,5 8,5 Z"/>
</svg>

<svg xmlns="http://www.w3.org/2000/svg" width="16" height="16" version="1"><path style="fill:#b2bfd9" d="M7.6 0C6.713 0 6 .713 6 1.6v.75a6 6 0 0 0-1.893 1.093l-.65-.375a1.596 1.596 0 0 0-2.186.586l-.4.692a1.596 1.596 0 0 0 .586 2.185l.648.375A6 6 0 0 0 2 8a6 6 0 0 0 .105 1.094l-.648.375a1.596 1.596 0 0 0-.586 2.185l.4.692a1.596 1.596 0 0 0 2.186.586l.647-.373A6 6 0 0 0 6 13.649v.751c0 .887.713 1.6 1.6 1.6h.8c.887 0 1.6-.713 1.6-1.6v-.755a6 6 0 0 0 1.893-1.088l.65.375a1.596 1.596 0 0 0 2.186-.586l.4-.692a1.596 1.596 0 0 0-.586-2.185l-.648-.375A6 6 0 0 0 14 8a6 6 0 0 0-.105-1.094l.648-.375a1.596 1.596 0 0 0 .586-2.185l-.4-.692a1.596 1.596 0 0 0-2.186-.586l-.647.373A6 6 0 0 0 10 2.351V1.6C10 .713 9.287 0 8.4 0z"/><path style="fill:#546e7a" d="M8 5a3 3 0 1 1 0 6 3 3 0 0 1 0-6z"/></svg>
